logos/dvc.svg

<?xml version="1.0" encoding="UTF-8"?>
<svg width="72px" height="72px" viewBox="0 0 72 72" version="1.1" xmlns="http://www.w3.org/2000/svg" xmlns:xlink="http://www.w3.org/1999/xlink">
    <!-- Generator: Sketch 53 (72520) - https://sketchapp.com -->
    <title>DVC</title>
    <desc>Created with Sketch.</desc>
    <g id="DVC" stroke="none" stroke-width="1" fill="none" fill-rule="evenodd">
        <rect id="Rectangle" stroke-opacity="0" stroke="#979797" x="0" y="0" width="72" height="72"></rect>
        <path d="M0,13.4544648 C0,12.9415481 0.377384551,12.4763445 0.860908507,12.4763445 L12.5598296,12.4763445 C21.8175444,12.4763445 29.3888219,20.5637294 29.3888219,30.4642152 C29.3888219,40.4601275 21.8175444,48.5594406 12.5598296,48.5594406 L0.860908507,48.5594406 C0.377384551,48.5594406 6.70369628e-15,48.0942371 6.70369628e-15,47.5813203 L6.70369628e-15,13.4544648 L0,13.4544648 Z M12.0271215,40.9379286 C17.4308407,40.9379286 21.3629589,36.3531127 21.3629589,30.4940753 C21.3629589,24.6826724 17.4426136,20.0978566 12.0271215,20.0978566 L7.43572603,20.0978566 L7.43572603,40.9379286 L12.0271215,40.9379286 Z" id="Shape" fill="#FFFFFF" fill-rule="nonzero"></path>
        <path d="M19.6870047,23.5764761 C19.4037395,22.9089414 19.7814264,22.2414068 20.5013919,22.2414068 L26.8866603,22.2414068 C27.2643472,22.2414068 27.6066259,22.5513336 27.7010476,22.8135794 L35.6206688,41.611831 L35.9039339,41.611831 L43.8235552,22.8135794 C43.9179769,22.5513336 44.2602556,22.2414068 44.6379424,22.2414068 L51.0232108,22.2414068 C51.7431764,22.2414068 52.1208632,22.9089414 51.8375981,23.5764761 L50.4094697,25.3406747 L50.0199801,27.7604877 L36.7773348,58.2405952 C36.6357022,58.550522 36.3406344,58.8008475 35.9629475,58.8008475 L35.4790362,58.8008475 C35.0895467,58.8008475 34.8062815,58.5386017 34.664649,58.2405952 L19.6870047,23.5764761 Z" id="Path" fill="#FFFFFF" fill-rule="nonzero"></path>
        <path d="M58.8701696,12 C63.6733589,12 67.2137933,13.5947285 70.4827944,16.7841856 C70.919448,17.2007192 70.919448,17.8076681 70.5300002,18.2242017 L66.7889412,22.3895374 C66.4585006,22.7465662 65.9274355,22.7465662 65.5851935,22.3895374 C63.8149763,20.6877002 61.4546867,19.7713264 59.1061985,19.7713264 C53.6893339,19.7713264 49.7004444,24.6031158 49.7004444,30.3631801 C49.7004444,36.0756405 53.7365397,40.8003213 59.1534043,40.8003213 C61.4074809,40.8003213 63.8503806,39.9315513 65.5851935,38.3368228 C65.915634,38.0273978 66.5411108,38.0273978 66.836147,38.3844266 L70.577206,42.656871 C70.9076466,43.0138998 70.8604408,43.6803535 70.5300002,44.0492832 C67.2728006,47.4410566 63.1422937,49.0357851 58.8701696,49.0357851 C49.2755923,49.0357851 41.5456438,40.8598261 41.5456438,30.5654964 C41.5456438,20.2711667 49.2755923,12 58.8701696,12 Z" id="Path" fill="#FFFFFF" fill-rule="nonzero"></path>
    </g>
</svg>

<svg width="72" height="72" xmlns="http://www.w3.org/2000/svg"><g fill="none" fill-rule="evenodd"><path d="M0 0h72v72H0z"/><path d="M0 13.454c0-.512.377-.978.86-.978h11.7c9.258 0 16.829 8.088 16.829 17.988 0 9.996-7.571 18.095-16.83 18.095H.862c-.484 0-.861-.465-.861-.978V13.454zm12.027 27.484c5.404 0 9.336-4.585 9.336-10.444 0-5.811-3.92-10.396-9.336-10.396H7.436v20.84h4.591z" fill="#FFF" fill-rule="nonzero"/><path d="M19.687 23.576c-.283-.667.094-1.335.814-1.335h6.386c.377 0 .72.31.814.573l7.92 18.798h.283l7.92-18.798c.094-.263.436-.573.814-.573h6.385c.72 0 1.098.668.815 1.335l-1.429 1.765-.389 2.42-13.243 30.48c-.141.31-.436.56-.814.56h-.484c-.39 0-.673-.262-.814-.56L19.687 23.576z" fill="#FFF" fill-rule="nonzero"/><path d="M58.87 12c4.803 0 8.344 1.595 11.613 4.784.436.417.436 1.024.047 1.44l-3.741 4.166c-.33.357-.862.357-1.204 0a9.406 9.406 0 0 0-6.479-2.619c-5.417 0-9.406 4.832-9.406 10.592 0 5.713 4.037 10.437 9.453 10.437 2.254 0 4.697-.868 6.432-2.463.33-.31.956-.31 1.251.047l3.741 4.273c.33.357.283 1.023-.047 1.392-3.257 3.392-7.388 4.987-11.66 4.987-9.594 0-17.324-8.176-17.324-18.47C41.546 20.27 49.276 12 58.87 12z" fill="#FFF" fill-rule="nonzero"/></g></svg>
